X:15
T:Reel du lendemain
C:Gilles Vigneault
Z:robin.beech@mcgill.ca
S:Gilles Vigneault: 14 Reels and one Waltz
R:reel
M:4/4
L:1/8
K:Gmin
FE |:  DF Bd f2ed | ce dc Bd cB | Ac BA Gc dc | BG GG G2FE | 
DF Bd ff ed | ce dc Bd cB | Ac BA Gb ag |1 fe dc B2FE :|2 fe dc B2Bc |:
d2f2B2cd | edcB c2Bc | d2G2G2AB | cBAG F2Bc |
d2f2B2cd | edcB c2BD | EFGA B2BF |1 GBAcB2Bc :|2 GBAc B2FE |]

